!!!!SEGMENT: pl-kk--kk-i-1--048-004_szadek-tomasz--officium-dies-est-laetitiae-sanctus.krn
!!!cenid: 15xx:764
!!!COM: Szadek, Tomasz
!!!COM-rismID: pe30020506
!!!CDT: ~1550-1612
!!!CNT: Polish
!!!OPR: Officium Dies est laetitiae
!!!OTL: Sanctus
!!!OMV: 004
!!!PDT:
!!!AGN:
!!!SMS-siglum: PL-Kk
!!!SMS-shelfmark: Kk.I.1
!!!SMS-shelfwork: 048-004 M
!!!SMS-variant:
!!!SMS-altvar:
!!!NIFC-rismSourceID: 300258002
!!!NIFC-islandoraID: pl-kk:1
!!!URL-pdf-islandora: https://repozytorium.nifc.pl/islandora/object/pl-kk%3A1/datastream/PDF/view
!!!URL-scan: https://polish.musicsources.pl/pl/lokalizacje/galeria/rekopisy/5736 @EN{Scan on Polish Music Sources Website} @PL{Skany w portalu Dziedzictwo Muzyki Polskiej w otwartym dostępie}
!!!ONB-nifc: UWAGA: Cantus (s. 145v-152r, skan 0148-0154), Altus (s. 140v-147r, skan 0334-0340), Tenor (s. 119v-126v, skan 0510-0517), Bassus (s. 132v-139r, skan 0695-0701). Części Mszy: 1. Kyrie, 2. Et in terra, 3. Patrem, 4. Sanctus
!!!AIN: 1 alto 1 bass 1 soprn 1 tenor
!!!key: F:lyd
**kern	**text	**mod-text	**kern	**text	**mod-text	**kern	**text	**mod-text	**kern	**text	**mod-text
*part4	*part4	*part4	*part3	*part3	*part3	*part2	*part2	*part2	*part1	*part1	*part1
*staff4	*staff4	*staff4	*staff3	*staff3	*staff3	*staff2	*staff2	*staff2	*staff1	*staff1	*staff1
*I"BASSVS	*	*	*I"TENOR	*	*	*I"ALTVS	*	*	*I"CANTVS	*	*
*mI"Basso	*	*	*mI"Tenore II	*	*	*mI"Tenore I	*	*	*mI"Alto	*	*
*I'B	*	*	*I'T	*	*	*I'A	*	*	*I'S	*	*
*	*	*	*mI'T 2	*	*	*mI'T 1	*	*	*mI'A	*	*
*Ibass	*	*	*Itenor	*	*	*Ialto	*	*	*Isoprn	*	*
*ICvox	*	*	*ICvox	*	*	*ICvox	*	*	*ICvox	*	*
*clefF4	*	*	*clefC4	*	*	*clefC4	*	*	*clefC3	*	*
*	*	*	*mclefGv2	*	*	*mclefGv2	*	*	*mclefGv2	*	*
*k[b-]	*	*	*k[b-]	*	*	*k[b-]	*	*	*k[b-]	*	*
*F:lyd	*	*	*F:lyd	*	*	*F:lyd	*	*	*F:lyd	*	*
!LO:MO:mod=!LO&colon;TS&colon;brack	!	!	!LO:MO:mod=!LO&colon;TS&colon;brack	!	!	!LO:MO:mod=!LO&colon;TS&colon;brack	!	!	!LO:MO:mod=!LO&colon;TS&colon;brack	!	!
!null	!	!	!null	!	!	!null	!	!	!null	!	!
*M2/1	*	*	*M2/1	*	*	*M2/1	*	*	*M2/1	*	*
*met()	*	*	*met()	*	*	*met()	*	*	*met()	*	*
*mmet(c|)	*	*	*mmet(c|)	*	*	*mmet(c|)	*	*	*mmet(c|)	*	*
=1-	=1-	=1-	=1-	=1-	=1-	=1-	=1-	=1-	=1-	=1-	=1-
!!LO:TX:t=P:problem=kreski taktowe zaznaczane oddechami
!!LO:TX:t=P:problem: w źródle brak oznaczenia metrum
00r	.	.	00r	.	.	0F	SAn-	San-	2.F/	SA-	San-
.	.	.	.	.	.	.	.	.	4G/	.	.
.	.	.	.	.	.	.	.	.	4A/	.	.
.	.	.	.	.	.	.	.	.	4B-/	-N-	.
.	.	.	.	.	.	.	.	.	1c	.	.
=2-	=2-	=2-	=2-	=2-	=2-	=2-	=2-	=2-	=2-	=2-	=2-
*	*	*	*	*	*	*lig	*	*	*	*	*
.	.	.	.	.	.	1G	.	.	.	.	.
.	.	.	.	.	.	.	.	.	2B-/	-c-	.
.	.	.	.	.	.	1A	.	.	2c/	.	.
.	.	.	.	.	.	.	.	.	2c/	.	-ctus
*	*	*	*	*	*	*Xlig	*	*	*	*	*
=3-	=3-	=3-	=3-	=3-	=3-	=3-	=3-	=3-	=3-	=3-	=3-
2.BB-/	.	[San-	0F	SAn-	San-	1.B-	.	.	4d\	-tus	San-
.	.	.	.	.	.	.	.	.	4c\	.	.
.	.	.	.	.	.	.	.	.	4d\	.	.
4C/	.	.	.	.	.	.	.	.	4e\	.	.
4D\	.	.	.	.	.	.	.	.	2.f\	.	.
4E\	.	.	.	.	.	.	.	.	.	.	.
1F	.	.	.	.	.	2A\	.	.	.	.	.
.	.	.	.	.	.	.	.	.	4e\	.	.
=4-	=4-	=4-	=4-	=4-	=4-	=4-	=4-	=4-	=4-	=4-	=4-
*	*	*	*lig	*	*	*	*	*	*	*	*
.	.	.	1G	.	.	2B-\	-ctus	-ctus	2d\	.	.
*	*	*	*	*	*	*	*	*	*custos:c	*	*
*	*	*	*	*	*	*	*ij	*ij	*	*	*
2E\	.	.	.	.	.	2.c\	SAn-	San-	2e\	.	.
!	!	!	!	!	!	!	!	!	!LO:LB:g=original	!	!
*	*	*	*	*	*	*	*	*	*lig	*	*
1F	.	-ctus	1A	.	.	.	.	.	1c	.	.
.	.	.	.	.	.	4B-\	.	.	.	.	.
.	.	.	.	.	.	2A\	.	.	.	.	.
*	*	*	*Xlig	*	*	*	*	*	*	*	*
=5-	=5-	=5-	=5-	=5-	=5-	=5-	=5-	=5-	=5-	=5-	=5-
*lig	*	*	*lig	*	*	*	*	*	*	*	*
1BB-	.	San-	1B-	-ctus	.	4G/	.	.	1d	.	.
.	.	.	.	.	.	4F/	.	.	.	.	.
.	.	.	.	.	.	1F	.	.	.	.	.
*	*	*	*	*	*	*	*	*	*Xlig	*	*
1C	.	.	1G	.	.	.	.	.	1c	.	-ctus
.	.	.	.	.	.	2E/	-ctus	-ctus	.	.	.
*Xlig	*	*	*Xlig	*	*	*	*	*	*	*	*
=6-	=6-	=6-	=6-	=6-	=6-	=6-	=6-	=6-	=6-	=6-	=6-
1D	.	.	1F	.	-ctus	1A	SAn-	San-	1r	.	.
*lig	*	*	*	*	*	*	*	*	*lig	*	*
1E-X	.	-ctus	2r	.	.	2.G/	.	.	1B-	Sanc-	San-
*	*	*	*	*	*	*	*	*	*	*	*
.	.	.	1G	.	[San-	.	.	.	.	.	.
.	.	.	.	.	.	4F/	.	.	.	.	.
=7-	=7-	=7-	=7-	=7-	=7-	=7-	=7-	=7-	=7-	=7-	=7-
!	!	!	!	!	!	!LO:SIC:s=4E-i	!	!	!	!	!
1C	.	.	.	.	.	4E/	.	.	1c	.	.
.	.	.	.	.	.	4D/	.	.	.	.	.
!	!	!	!	!	!	!LO:SIC:s=2E-i	!	!	!	!	!
.	.	.	2G/	.	-ctus]	2E/	.	.	.	.	.
*Xlig	*	*	*lig	*ij	*ij	*	*	*	*Xlig	*	*
1BB-	.	.	1D	SAn-	San-	1F	.	.	4d\	.	.
.	.	.	.	.	.	.	.	.	4c\	.	.
.	.	.	.	.	.	.	.	.	4B-/	-tus	.
.	.	.	.	.	.	.	.	.	4A/	.	.
=8-	=8-	=8-	=8-	=8-	=8-	=8-	=8-	=8-	=8-	=8-	=8-
*	*	*	*col	*	*	*	*	*	*	*	*
2r	.	.	2.E/	.	.	4C/	.	.	1G	.	.
.	.	.	.	.	.	4D/	.	.	.	.	.
1C	.	San-	.	.	.	4E/	.	.	.	.	.
*	*	*	*Xlig	*	*	*	*	*	*	*	*
*	*	*	*	*	*	*custos:G	*	*	*	*	*
.	.	.	4D/	.	.	4F/	.	.	.	.	.
*	*	*	*Xcol	*	*	*	*	*	*	*	*
!	!	!	!	!	!	!LO:LB:g=original	!	!	!	!	!
.	.	.	4E/	.	.	2G/	.	.	1c	.	.
.	.	.	4F/	.	.	.	.	.	.	.	.
2C/	.	-ctus	2.G/	.	.	2E/	.	.	.	.	.
=9-	=9-	=9-	=9-	=9-	=9-	=9-	=9-	=9-	=9-	=9-	=9-
2GG/	.	San-	.	.	.	2D/	.	.	2B-/	.	.
.	.	.	4F/	.	.	.	.	.	.	.	.
2AA/	.	.	1F	.	.	2C/	.	.	2A/	.	.
2BB-/	.	.	.	.	.	2D/	.	.	1G	.	.
2C/	.	.	2E/	.	.	2E/	.	.	.	.	.
=10-	=10-	=10-	=10-	=10-	=10-	=10-	=10-	=10-	=10-	=10-	=10-
!LO:SIC:s=[0FF	!	!	!	!	!	!	!	!	!	!	!
[0FF;	.	-ctus.	[0F	-ctus	-ctus.	2C/	-ctus	-ctus	2F/	.	-ctus
*	*	*	*	*Xij	*Xij	*	*Xij	*Xij	*	*	*
.	.	.	.	.	.	2.c\	S(an)-	San-	2.A/	.	[San-
.	.	.	.	.	.	4B-\	-ctus	.	4G/	.	.
.	.	.	.	.	.	4A\	.	.	4A/	.	.
.	.	.	.	.	.	4G\	.	.	4B-/	.	.
=11-	=11-	=11-	=11-	=11-	=11-	=11-	=11-	=11-	=11-	=11-	=11-
*	*	*	*	*	*	*	*	*	*custos:c	*	*
!LO:SIC:s=0FF;]	!	!	!LO:SIC:s=0F;]	!	!	!LO:SIC:s=0A;	!	!	!LO:SIC:s=0c;	!	!
0FF]	.	.	0F]	.	.	0A	.	-ctus.	0c	.	-ctus.]
!	!	!	!	!	!	!	!	!	!LO:LB:g=original	!	!
=12||	=12||	=12||	=12||	=12||	=12||	=12||	=12||	=12||	=12||	=12||	=12||
1.C	Sanc-	San-	00r	.	.	0r	.	.	00r	.	.
2C/	-tus	-ctus	.	.	.	.	.	.	.	.	.
=13-	=13-	=13-	=13-	=13-	=13-	=13-	=13-	=13-	=13-	=13-	=13-
1D	.	Do-	.	.	.	2F/	Sanc-	San-	.	.	.
.	.	.	.	.	.	2F/	-tus	-ctus	.	.	.
!LO:TX:t=P:problem=# above	!	!	!	!	!	!	!	!	!	!	!
!LO:MO:mod=!null:null	!	!	!	!	!	!	!	!	!	!	!
!LO:N:acc=#	!	!	!	!	!	!	!	!	!	!	!
!LO:SIC:s=1E	!	!	!	!	!	!	!	!	!	!	!
1En	do-	-mi-	.	.	.	1G	.	Do-	.	.	.
=14-	=14-	=14-	=14-	=14-	=14-	=14-	=14-	=14-	=14-	=14-	=14-
2.F\	-mi-	-nus	0r	.	.	1A	do-	-mi-	2c/	SAnc-	San-
.	.	.	.	.	.	.	.	.	2c/	-tus	-ctus
4E\	.	.	.	.	.	.	.	.	.	.	.
2D/	-nus	.	.	.	.	1B-	-mi-	-nus	1d	.	Do-
2BB-/	.	.	.	.	.	.	.	.	.	.	.
=15-	=15-	=15-	=15-	=15-	=15-	=15-	=15-	=15-	=15-	=15-	=15-
1C	De-	De-	1r	.	.	1G	-nus	De-	1e	Do-	-mi-
1FF	-us	-us	2F/	SANC-	San-	4A/	de-	-us	1f	-mi-	-nus
.	.	.	.	.	.	4G/	-us	.	.	.	.
*	*	*	*	*	*	*custos:c	*	*	*	*	*
.	.	.	2F/	-TVS	-ctus	1c	Sab-	Sa-	.	.	.
!	!	!	!	!	!	!LO:LB:g=original	!	!	!	!	!
=16-	=16-	=16-	=16-	=16-	=16-	=16-	=16-	=16-	=16-	=16-	=16-
0r	.	.	1G	D(o-	Do-	.	.	.	1d	-nus	De-
!	!	!	!	!	!	!LO:SIC:s=2Bi	!	!	!	!	!
.	.	.	.	.	.	2B-\	.	ba-	.	.	.
.	.	.	1A	-mi)-	-mi-	1c	-ba-	-oth	4c/	de-	-us
.	.	.	.	.	.	.	.	.	4d/	-us	.
.	.	.	.	.	.	.	.	.	4e\	.	.
.	.	.	.	.	.	.	.	.	4f\	.	.
=17-	=17-	=17-	=17-	=17-	=17-	=17-	=17-	=17-	=17-	=17-	=17-
*	*ij	*ij	*	*	*	*	*	*ij	*	*	*
2BB-/	Sanc-	San-	1B-	-nus	-nus	1d	-ot	Sa-	4g\	.	Sa-
.	.	.	.	.	.	.	.	.	4f\	ſab-	.
2BB-/	-tus	-ctus	.	.	.	.	.	.	1f	-ba-	.
*	*	*	*	*	*	*	*ij	*	*	*	*
1C	do-	Do-	1G	de-	De-	2.c\	Sab-	.	.	.	.
.	.	.	.	.	.	.	.	.	2e\	-ot	-ba-
.	.	.	.	.	.	4B-\	.	.	.	.	.
=18-	=18-	=18-	=18-	=18-	=18-	=18-	=18-	=18-	=18-	=18-	=18-
1D	-mi-	-mi-	2F/	-us	-us	4A/	-ba-	-ba-	1f	.	-oth.
.	.	.	.	.	.	4G/	.	.	.	.	.
.	.	.	2A/	Sab-	Sa-	2F/	-ot	-oth	.	.	.
*	*	*	*	*	*	*	*Xij	*Xij	*	*	*
1E-X	-nus	-nus	2.G/	-ba-	.	2B-\	ſanc-	San-	2r	.	.
!	!	!	!	!	!	!	!	!	!LO:TX:a:t=2:mod=	!	!
*	*	*	*	*	*	*	*	*	*	*ij	*ij
.	.	.	.	.	.	2B-\	-tus	-ctus	1g	Do-	Do-
.	.	.	4F/	.	.	.	.	.	.	.	.
=19-	=19-	=19-	=19-	=19-	=19-	=19-	=19-	=19-	=19-	=19-	=19-
!	!	!	!LO:SIC:s=4E-i	!	!	!	!	!	!	!	!
1C	De-	De-	4E/	.	.	2c\	do-	Do-	.	.	.
.	.	.	4D/	.	.	.	.	.	.	.	.
!	!	!	!LO:SIC:s=2E-i	!	!	!	!	!	!	!	!
.	.	.	2E/	.	-ba-	4G/	-mi-	-mi-	2g\	-mi-	-mi-
.	.	.	.	.	.	4A/	.	.	.	.	.
0BB-	-us	-us	2F/	-oth	-oth	4B-\	.	.	2f\	-nus	-nus
.	.	.	.	.	.	4c\	.	.	.	.	.
!	!	!	!	!	!	!	!	!	!LO:MO:mod=[2f	!	!
.	.	.	1F	Do-	Do-	2.d\	-nus	.	2.f\	de-	De-
*	*Xij	*Xij	*	*	*	*	*	*	*	*	*
=20-	=20-	=20-	=20-	=20-	=20-	=20-	=20-	=20-	=20-	=20-	=20-
!	!	!	!	!	!	!	!	!	!LO:MO:null:mod=4f]	!	!
.	.	.	.	.	.	.	.	.	.	.	.
!	!	!	!	!	!	!	!	!	!LO:SIC:s=4e-i	!	!
.	.	.	.	.	.	4c\	.	.	4e\	.	.
.	.	.	2F/	-mi-	-mi-	4B-\	.	.	4d\	.	.
.	.	.	.	.	.	4A\	.	.	4c/	.	.
*	*	*	*custos:D	*	*	*	*	*	*	*	*
1r	.	.	1G	-nu(s)	-nus	2G/	.	-nus	4B-/	.	.
.	.	.	.	.	.	.	.	.	4A/	.	.
.	.	.	.	.	.	1B-	do-	Do-	2G/	.	.
!	!	!	!LO:LB:g=original	!	!	!	!	!	!	!	!
=21-	=21-	=21-	=21-	=21-	=21-	=21-	=21-	=21-	=21-	=21-	=21-
*	*	*	*	*	*	*	*	*	*custos:B-	*	*
1.BB-	Do-	Do-	2.D/	de-	De-	.	.	.	1F	.	.
.	.	.	.	.	.	2B-\	-mi-	-mi-	.	.	.
!	!	!	!LO:SIC:s=4E-i	!	!	!	!	!	!	!	!
.	.	.	4E/	.	.	.	.	.	.	.	.
!	!	!	!	!	!	!	!	!	!LO:LB:g=original	!	!
.	.	.	4F/	-us	.	1d	-nus	-nus	1B-	-us	-us
.	.	.	4G/	.	-us	.	.	.	.	.	.
*custos:C	*	*	*	*	*	*	*	*	*	*	*
2BB-/	-mi-	-mi-	1F	ſab-	Sa-	.	.	.	.	.	.
!LO:LB:g=original	!	!	!	!	!	!	!	!	!	!	!
=22-	=22-	=22-	=22-	=22-	=22-	=22-	=22-	=22-	=22-	=22-	=22-
1C	-nus	-nus	.	.	.	1G	De-	De-	1r	.	.
!	!	!	!LO:SIC:s=2E-i	!	!	!	!	!	!	!	!
.	.	.	2E/	-ba-	-ba-	.	.	.	.	.	.
*	*	*	*	*	*	*custos:F	*	*	*	*	*
2GG/	De-	De-	1D	-oth.	-oth	1G	-us	-us	1.B-	Do-	Do-
2GG/	-us	-us	.	.	.	.	.	.	.	.	.
!	!	!	!	!	!	!LO:LB:g=original	!	!	!	!	!
=23-	=23-	=23-	=23-	=23-	=23-	=23-	=23-	=23-	=23-	=23-	=23-
1BB-	Sa-	Sa-	2r	.	.	2.F/	Sab-	Sa-	.	.	.
*	*	*	*	*ij	*ij	*	*	*	*	*	*
.	.	.	1F	Do-	Do-	.	.	.	2B-/	-mi-	-mi-
.	.	.	.	.	.	4G/	.	.	.	.	.
1FF	-ba-	-ba-	.	.	.	4A/	.	.	1c	-nus	-nus
.	.	.	.	.	.	4G/	.	.	.	.	.
.	.	.	2F/	-mi-	-mi-	4A/	.	.	.	.	.
.	.	.	.	.	.	4B-/	.	.	.	.	.
=24-	=24-	=24-	=24-	=24-	=24-	=24-	=24-	=24-	=24-	=24-	=24-
2C/	-ot	-oth	1G	-nu(s)	-nus	2c\	.	.	4G/	de-	De-
.	.	.	.	.	.	.	.	.	4A/	.	.
*	*ij	*ij	*	*	*	*	*	*	*	*	*
2.GG/	De-	De-	.	.	.	2.d\	.	.	4B-/	.	.
.	.	.	.	.	.	.	.	.	4c/	.	.
.	.	.	1D	de-	De-	.	.	.	1d	.	.
4AA/	.	.	.	.	.	4c\	.	.	.	.	.
2BB-/	-us	.	.	.	.	4B-\	.	.	.	.	.
.	.	.	.	.	.	4A\	.	.	.	.	.
=25-	=25-	=25-	=25-	=25-	=25-	=25-	=25-	=25-	=25-	=25-	=25-
2C/	.	-us	2E/	-us	-us	2G/	.	.	2c/	-us	-us
2D/	Sa-	Sa-	2F/	ſab-	Sa-	2F/	.	.	1f	ſab-	Sa-
1C	-ba-	-ba-	1G	-ba-	-ba-	1c	-ba-	-ba-	.	.	.
.	.	.	.	.	.	.	.	.	2e\	-ba-	-ba-
=26-	=26-	=26-	=26-	=26-	=26-	=26-	=26-	=26-	=26-	=26-	=26-
!	!	!	!LO:SIC:s=0F;	!	!	!	!	!	!	!	!
0FF;	-ot	-oth.	0F	-oth	-oth.	0A;<	-oth	-oth.	0f;	-ot	-oth.
*	*Xij	*Xij	*	*Xij	*Xij	*	*	*	*	*Xij	*Xij
=27||	=27||	=27||	=27||	=27||	=27||	=27||	=27||	=27||	=27||	=27||	=27||
1r	.	.	00r	.	.	1r	.	.	1.c	Ple-	Ple-
1.F	Ple-	Ple-	.	.	.	1.A	Ple-	Ple-	.	.	.
.	.	.	.	.	.	.	.	.	2c/	-ni	-ni
=28-	=28-	=28-	=28-	=28-	=28-	=28-	=28-	=28-	=28-	=28-	=28-
.	.	.	.	.	.	.	.	.	2d\	ſunt	ſunt
2F\	-ni	-ni	.	.	.	2A/	-ni	-ni	2c/	.	.
1G	ſunt	ſunt	.	.	.	1B-	ſunt	ſunt	2B-/	coe-	cae-
.	.	.	.	.	.	.	.	.	2G/	-li	-li
=29-	=29-	=29-	=29-	=29-	=29-	=29-	=29-	=29-	=29-	=29-	=29-
1F	coe-	cae-	1.c	PLe-	Ple-	1.A	.	cae-	2A/	.	et
.	.	.	.	.	.	.	.	.	4F/	et	ter-
.	.	.	.	.	.	.	.	.	4G/	ter-	.
2F\	-li	-li	.	.	.	.	.	.	4A/	.	.
.	.	.	.	.	.	.	.	.	4B-/	.	.
*custos:BB-	*	*	*	*	*	*	*	*	*	*	*
2F\	et	et	2c\	-ni	-ni	2A/	coe-	-li	4c/	.	.
.	.	.	.	.	.	.	.	.	4A/	.	.
!LO:LB:g=original	!	!	!	!	!	!	!	!	!	!	!
=30-	=30-	=30-	=30-	=30-	=30-	=30-	=30-	=30-	=30-	=30-	=30-
1BB-	ter-	ter-	1d	ſunt	ſunt	4G/	-li	et	2.B-/	.	.
.	.	.	.	.	.	4F/	.	.	.	.	.
.	.	.	.	.	.	1F	et	ter-	.	.	.
*	*	*	*	*	*	*	*	*	*custos:G	*	*
.	.	.	.	.	.	.	.	.	4A/	.	.
!	!	!	!	!	!	!	!	!	!LO:LB:g=original	!	!
1C	-ra	-ra	1c	cae-	cae-	.	.	.	1G	.	.
*	*	*	*	*	*	*custos:F	*	*	*	*	*
.	.	.	.	.	.	2E/	ter-	.	.	.	.
!	!	!	!	!	!	!LO:LB:g=original	!	!	!	!	!
=31-	=31-	=31-	=31-	=31-	=31-	=31-	=31-	=31-	=31-	=31-	=31-
2r	.	.	2.A/	-li	-li	2F/	-ra	-ra	2F/	-ra	-ra
*	*	*	*	*	*	*	*ij	*ij	*	*	*
2F\	coe-	cae-	.	.	.	1c	ple-	ple-	2r	.	.
.	.	.	4G/	e(t)	.	.	.	.	.	.	.
2F\	-li	-li	4A/	.	et	.	.	.	2f\	cae-	cae-
.	.	.	4B-\	ter-	.	.	.	.	.	.	.
2A\	et	et	1c	-ra	ter-	2c\	-ni	-ni	2e\	-li	-li
=32-	=32-	=32-	=32-	=32-	=32-	=32-	=32-	=32-	=32-	=32-	=32-
1G	t(er)-	ter-	.	.	.	1d	ſunt	ſunt	2g\	et	et
!	!	!	!LO:SIC:s=2Bi	!	!	!	!	!	!	!	!
.	.	.	2B-\	.	.	.	.	.	2g\	t(e)r-	ter-
2C/	-ra	-ra	1c	.	-ra	4c\	coe-	cae-	2e\	-ra.	-ra
.	.	.	.	.	.	4B-\	.	.	.	.	.
*	*ij	*ij	*	*	*	*	*	*	*	*	*
1F	coe-	cae-	.	.	.	4A\	.	.	1c	ple-	ple-
.	.	.	.	.	.	4G\	.	.	.	.	.
=33-	=33-	=33-	=33-	=33-	=33-	=33-	=33-	=33-	=33-	=33-	=33-
!	!	!	!	!	!	!LO:SIC:s=2F	!	!	!	!	!
.	.	.	2r	.	.	2A/	-li	-li	.	.	.
2E\	.	.	2G/	cae-	cae-	2.G/	et	et	2c/	-ni	-ni
2D/	-li	-li	2A/	-li	-li	.	.	.	1d	ſunt	ſunt
.	.	.	.	.	.	4F/	.	.	.	.	.
2BB-/	et	et	2B-\	et	et	1F	ter-	ter-	.	.	.
=34-	=34-	=34-	=34-	=34-	=34-	=34-	=34-	=34-	=34-	=34-	=34-
1C	t(er)-	ter-	1G	t(e)r-	ter-	.	.	.	2.c/	cae-	cae-
.	.	.	.	.	.	2E/	.	.	.	.	.
.	.	.	.	.	.	.	.	.	4B-/	.	.
*	*	*	*custos:c	*	*	*	*	*	*	*	*
2D\	.	.	1F	-ra	-ra	2F/	.	.	2A/	-li	-li
1F	.	.	.	.	.	2D/	.	.	4G/	.	et
.	.	.	.	.	.	.	.	.	4F/	et	.
!	!	!	!LO:LB:g=original	!	!	!	!	!	!	!	!
=35-	=35-	=35-	=35-	=35-	=35-	=35-	=35-	=35-	=35-	=35-	=35-
.	.	.	2r	.	.	1C	-ra	-ra	1G	t(e)r-	ter-
2E\	.	.	1c	Ple-	ple-	.	.	.	.	.	.
*	*	*	*	*	*	*	*Xij	*Xij	*	*	*
2F\	-ra	-ra	.	.	.	2r	.	.	1A	-ra	-ra
*	*Xij	*Xij	*	*	*	*	*	*	*	*	*
2F\	coe-	cae-	2c\	-ni	-ni	2F/	coe-	cae-	.	.	.
=36-	=36-	=36-	=36-	=36-	=36-	=36-	=36-	=36-	=36-	=36-	=36-
4BB-/	-li	-li	1d	ſunt	ſunt	1B-	-li	-li	2r	.	.
4C/	.	.	.	.	.	.	.	.	.	.	.
4D/	.	.	.	.	.	.	.	.	1f	gl(o-	glo-
4E/	.	.	.	.	.	.	.	.	.	.	.
2F\	.	.	2.c\	.	cae-	2A/	e(t)	et	.	.	.
*custos:D	*	*	*	*	*	*	*	*	*	*	*
2C/	et	et	.	.	.	2G/	t(er)-	.	2e\	-ri)-	-ri-
.	.	.	4B-\	cae-	.	.	.	.	.	.	.
!LO:LB:g=original	!	!	!	!	!	!	!	!	!	!	!
=37-	=37-	=37-	=37-	=37-	=37-	=37-	=37-	=37-	=37-	=37-	=37-
1D	ter-	ter-	2A/	-li	-li	4F/	-ra	ter-	4d\	-a	-a
.	.	.	.	.	.	4G/	.	.	4c\	tu-	.
.	.	.	4G/	et	et	4A/	.	.	2.f\	-a	tu-
.	.	.	4F/	.	.	4B-/	.	.	.	.	.
1C	-ra	-ra	1G	t(e)r-	ter-	2c\	.	-ra	.	.	.
!	!	!	!	!	!	!	!	!	!LO:SIC:s=8eL	!	!
.	.	.	.	.	.	.	.	.	8e\	.	.
!	!	!	!	!	!	!	!	!	!LO:SIC:s=8dJ	!	!
.	.	.	.	.	.	.	.	.	8d\	.	.
*	*	*	*	*	*	*custos:c	*	*	*	*	*
.	.	.	.	.	.	2c\	glo-	glo-	2e\	.	.
!	!	!	!	!	!	!LO:LB:g=original	!	!	!	!	!
=38-	=38-	=38-	=38-	=38-	=38-	=38-	=38-	=38-	=38-	=38-	=38-
2r	.	.	1F	-ra.	-ra	2.c\	-ri-	-ri-	0f	.	-a
2F\	glo-	glo-	.	.	.	.	.	.	.	.	.
.	.	.	.	.	.	4B-\	.	.	.	.	.
1F	-ri-	-ri-	2r	.	.	4A/	.	.	.	.	.
.	.	.	.	.	.	4G/	.	.	.	.	.
.	.	.	2c\	Glo-	glo-	2A\	-a	-a	.	.	.
=39-	=39-	=39-	=39-	=39-	=39-	=39-	=39-	=39-	=39-	=39-	=39-
2C/	-a	-a	2.c\	-ri-	-ri-	2G/	tu-	tu-	1r	.	.
2C/	tu-	tu-	.	.	.	2G/	-a	-a	.	.	.
.	.	.	4B-\	-a	.	.	.	.	.	.	.
*	*	*	*	*	*	*	*ij	*ij	*	*	*
2D/	-a	-a	4A\	.	.	2F/	glo-	glo-	2r	.	.
.	.	.	4G/	.	.	.	.	.	.	.	.
*	*ij	*ij	*	*	*	*	*	*	*custos:d	*	*
2AA/	glo-	glo-	2A/	tu-	-a	2E/	.	.	2c/	.	[glo-
!	!	!	!	!	!	!	!	!	!LO:LB:g=original	!	!
=40-	=40-	=40-	=40-	=40-	=40-	=40-	=40-	=40-	=40-	=40-	=40-
2BB-/	-ri-	-ri-	4G/	.	tu-	2D/	-ri-	-ri-	2d\	.	-ri-
.	.	.	4F/	.	.	.	.	.	.	.	.
2AA/	-a	-a	1F	.	.	2F/	-a	-a	2c/	.	-a
1GG	tu-	tu-	.	.	.	1G	tu-	tu-	1B-	.	tu-
.	.	.	2E/	-a	.	.	.	.	.	.	.
=41-	=41-	=41-	=41-	=41-	=41-	=41-	=41-	=41-	=41-	=41-	=41-
!	!	!	!LO:N:vis=1	!	!	!	!	!	!LO:SIC:s=0A;	!	!
0FF;	-a	-a.	0F;	.	-a.	0C;	-a	-a.	0A	.	-a.]
*	*Xij	*Xij	*	*	*	*	*Xij	*Xij	*	*	*
=42||	=42||	=42||	=42||	=42||	=42||	=42||	=42||	=42||	=42||	=42||	=42||
1.F	Be-	Be-	1c	BE-	Be-	1.A	Be-	Be-	1.f	Be-	Be-
.	.	.	1c	-Ne-	-ne-	.	.	.	.	.	.
2C/	-ne-	-ne-	.	.	.	2G/	-ne-	-ne-	2e\	-ne-	-ne-
=43-	=43-	=43-	=43-	=43-	=43-	=43-	=43-	=43-	=43-	=43-	=43-
4BB-/	-di-	-di-	1d	-di-	-di-	1B-	-dic-	-di-	1f	-dic-	-di-
4C/	.	.	.	.	.	.	.	.	.	.	.
4D/	.	.	.	.	.	.	.	.	.	.	.
4E/	.	.	.	.	.	.	.	.	.	.	.
4F\	-ctus	-ctus	2.c\	-ctus	-ctus	2.A/	-tus	-ctus	1f	-tus	-ctus
4E\	.	.	.	.	.	.	.	.	.	.	.
4F\	.	.	.	.	.	.	.	.	.	.	.
*custos:A	*	*	*	*	*	*	*	*	*	*	*
4G\	.	.	4B-\	.	.	4G/	.	.	.	.	.
!LO:LB:g=original	!	!	!	!	!	!	!	!	!	!	!
=44-	=44-	=44-	=44-	=44-	=44-	=44-	=44-	=44-	=44-	=44-	=44-
1A	qui	qui	4A/	qui	qui	2F/	.	.	4c\	qui	qui
.	.	.	4G/	.	.	.	.	.	4d\	.	.
*	*	*	*	*	*	*custos:d	*	*	*	*	*
.	.	.	1c	Ve-	ve-	2A\	qui	qui	4e\	.	.
.	.	.	.	.	.	.	.	.	4f\	ve-	.
!	!	!	!	!	!	!LO:LB:g=original	!	!	!	!	!
1G	Ve-	ve-	.	.	.	1d	Ve-	ve-	2.g\	.	ve-
!	!	!	!LO:SIC:s=2Bi	!	!	!	!	!	!	!	!
.	.	.	2B-\	-nit	.	.	.	.	.	.	.
.	.	.	.	.	.	.	.	.	4f\	.	.
=45-	=45-	=45-	=45-	=45-	=45-	=45-	=45-	=45-	=45-	=45-	=45-
2C/	-nit	-nit	1c	.	-nit	2c\	-nit	-nit	4e\	.	.
.	.	.	.	.	.	.	.	.	4d\	.	.
2C/	in	in	.	.	.	2G/	in	in	1c	-nit	.
1D	no-	no-	1r	.	.	1F	no-	no-	.	.	.
!	!	!	!	!	!	!	!	!	!LO:SIC:s=2Bi	!	!
.	.	.	.	.	.	.	.	.	2B-/	.	.
=46-	=46-	=46-	=46-	=46-	=46-	=46-	=46-	=46-	=46-	=46-	=46-
2C/	-mi-	-mi-	2r	.	.	2G/	-mi-	-mi-	2c/	.	-nit
2AA/	-(n)e	-ne	2c\	In	in	2A/	-ne	-ne	2c/	.	[qui
2BB-/	d(o-	Do-	1d	no-	no-	4G/	.	Do-	1B-	.	ve-
.	.	.	.	.	.	4F/	.	.	.	.	.
2BB-/	-mi)-	-mi-	.	.	.	1F	do-	.	.	.	.
=47-	=47-	=47-	=47-	=47-	=47-	=47-	=47-	=47-	=47-	=47-	=47-
2C/	-ni	-ni	2.c\	-mi-	-mi-	.	.	.	1G	.	-nit]
*	*ij	*ij	*	*	*	*	*	*	*	*	*
2C/	in	in	.	.	.	2E/	-mi-	-mi-	.	.	.
.	.	.	4B-\	-ne	.	.	.	.	.	.	.
2D/	no-	no-	2A/	.	.	2F/	-ni	-ni	2r	.	.
2GG/	-mi-	-mi-	2B-/	.	-ne	2.G/	.	[Do-	2d\	in	in
=48-	=48-	=48-	=48-	=48-	=48-	=48-	=48-	=48-	=48-	=48-	=48-
*	*	*	*	*	*	*	*	*	*custos:B-	*	*
2D/	-(n)e	-ne	2A/	do-	Do-	.	.	.	2d\	no-	no-
.	.	.	.	.	.	4F/	.	.	.	.	.
!	!	!	!	!	!	!	!	!	!LO:LB:g=original	!	!
2D/	d(o-	Do-	4G/	.	.	1F	.	.	2B-/	-mi-	-mi-
.	.	.	4F/	-mi-	.	.	.	.	.	.	.
*	*	*	*custos:A	*	*	*	*	*	*	*	*
1C	-mi)-	-mi-	1G	.	-mi-	.	.	.	2c/	-ne	-ne
.	.	.	.	.	.	2E/	.	-mi-	2.c/	do-	Do-
!	!	!	!LO:LB:g=original	!	!	!	!	!	!	!	!
=49-	=49-	=49-	=49-	=49-	=49-	=49-	=49-	=49-	=49-	=49-	=49-
2FF/	-ni	-ni	2A/	-ni	-ni	1F	.	-ni]	.	.	.
.	.	.	.	.	.	.	.	.	4B-/	.	.
2F\	in	in	1c	In	in	.	.	.	2A/	-mi-	-mi-
*	*	*	*	*	*	*	*	*	*	*	*
1G	.	.	.	.	.	1r	.	.	2G/	-ni	-ni
*	*	*	*	*	*	*	*ij	*ij	*	*ij	*ij
.	.	.	2B-\	no-	.	.	.	.	2d\	in	in
=50-	=50-	=50-	=50-	=50-	=50-	=50-	=50-	=50-	=50-	=50-	=50-
2.F\	no	no-	2.A/	-mi-	no-	1c	in	in	2.f\	no-	no-
*custos:D	*	*	*	*	*	*	*	*	*	*	*
4E\	.	.	4G/	.	.	.	.	.	4g\	.	.
!LO:LB:g=original	!	!	!	!	!	!	!	!	!	!	!
2D\	-mi-	-mi-	2F/	-ne	-mi-	2f\	no-	no-	2a\	-mi-	-mi-
2E-X\	-(n)e	-ne	2G/	do-	-ne	2B-\	-mi-	-mi-	2.g\	-ne	-ne
=51-	=51-	=51-	=51-	=51-	=51-	=51-	=51-	=51-	=51-	=51-	=51-
1D	d(o-	Do-	2A/	.	Do-	2d\	-ne	-ne	.	.	.
.	.	.	.	.	.	.	.	.	4f\	.	.
.	.	.	4G/	-mi-	.	2B-\	do-	Do-	1f	do-	Do-
.	.	.	4F/	.	.	.	.	.	.	.	.
1C	-mi)-	-mi-	1G	-ni	-mi-	1c	-mi-	-mi-	.	.	.
.	.	.	.	.	.	.	.	.	2e\	-mi-	-mi-
=52-	=52-	=52-	=52-	=52-	=52-	=52-	=52-	=52-	=52-	=52-	=52-
!LO:SIC:s=0FF;	!	!	!LO:SIC:s=0F;	!	!	!	!	!	!LO:SIC:s=0f;	!	!
0FF	-ni	-ni.	0F	.	-ni.	0A;<	-ni	-ni.	0f	-ni	-ni.
*	*Xij	*Xij	*	*	*	*	*Xij	*Xij	*	*Xij	*Xij
==	==	==	==	==	==	==	==	==	==	==	==
*-	*-	*-	*-	*-	*-	*-	*-	*-	*-	*-	*-
!!!system-decoration: [(*)]
!!LO:MO:ori
!!!RDF**kern: l = terminal long
!!!RDF**kern: > = above
!!!RDF**kern: < = below
!!LO:MO:mod
!! !!!RDF**kern: i = editorial accidental
!!LO:MO:end
!!!filter-modern: shed -e "s/TX(.*):t=P:/tx$1:t=P:/LG" | sic -sq | modori -m | autostem -r | tie -s | humtr -p | shed -e "s/-//B" | shed -e "s/^custos:/Xcustos:/I"
!!!ENC: Mateusz Solarz
!!!END: 2022-03-10
!!!ENC: Jan Barakat
!!!END: 2022-03-14
!!!ENC-modern: Andrzej Kubiczek
!!!END-modern: 2022-07-18
!!!YEC: Copyright 2022 Narodowy Instytut Fryderyka Chopina (https://polishscores.org)
!!!YEM: Licence CC BY 4.0 (https://creativecommons.org/licenses/by/4.0)
